img/svg-icons/element.svg

<svg xmlns="http://www.w3.org/2000/svg" id="element" viewBox="0 0 57.3 59"><path d="M28.7 35.6a6.12 6.12 0 0 1-6.1-6.1 6.1 6.1 0 1 1 12.2 0 6.12 6.12 0 0 1-6.1 6.1zm0-10.1a4.1 4.1 0 1 0 4.1 4.1 4.18 4.18 0 0 0-4.1-4.1zM30.4 1.7a1.27 1.27 0 0 1-.1.6 1.76 1.76 0 0 1-1.6 1.1 1.71 1.71 0 0 1-1.6-1.1 1.27 1.27 0 0 1-.1-.6.9.9 0 0 1 .1-.5 1.67 1.67 0 0 1 3.2 0 4.33 4.33 0 0 1 .1.5zM30.4 57.3a.9.9 0 0 1-.1.5 1.67 1.67 0 0 1-3.2 0 .75.75 0 0 1-.1-.5 1.27 1.27 0 0 1 .1-.6 1.76 1.76 0 0 1 1.6-1.1 1.71 1.71 0 0 1 1.6 1.1c0 .2.1.4.1.6zM46.4 29.5a1.62 1.62 0 0 1-1.2 1.6c-.1 0-.3.1-.4.1s-.5-.1-.7-.1a1.64 1.64 0 0 1-1-1.5 1.54 1.54 0 0 1 1-1.5 1.48 1.48 0 0 1 .7-.1.48.48 0 0 1 .4.1 1.34 1.34 0 0 1 1.2 1.4zM14.3 29.5a1.54 1.54 0 0 1-1 1.5 1.48 1.48 0 0 1-.7.1.48.48 0 0 1-.4-.1 1.67 1.67 0 0 1 0-3.2c.1 0 .3-.1.4-.1s.5.1.7.1a2.06 2.06 0 0 1 1 1.7z"/><path d="M28.7 12.6a16.84 16.84 0 0 0-16.3 12.7h.3a6.75 6.75 0 0 1 1.4.2 15.12 15.12 0 0 1 29.2 0 5.9 5.9 0 0 1 1.4-.2h.3a16.93 16.93 0 0 0-16.3-12.7zm16 21.1a5.9 5.9 0 0 1-1.4-.2 15.33 15.33 0 0 1-14.6 11.2A15.45 15.45 0 0 1 14 33.5a5.9 5.9 0 0 1-1.4.2h-.3a16.87 16.87 0 0 0 32.7 0h-.3z"/><path d="M32.8 1.1v.5a3.6 3.6 0 0 1-.2 1.1 27 27 0 0 1 0 53.4 5.16 5.16 0 0 1 .2 1.1v.5a28.59 28.59 0 0 0 0-56.6zM1.7 29.5A27.11 27.11 0 0 1 24.6 2.8a5.16 5.16 0 0 1-.2-1.1v-.5a28.66 28.66 0 0 0 .1 56.7v-.5a3.6 3.6 0 0 1 .2-1.1 27.29 27.29 0 0 1-23-26.8z"/></svg>

<svg id="element" xmlns="http://www.w3.org/2000/svg" width="57.3" height="59" viewBox="0 0 57.3 59"><title>element</title><path d="M28.7,35.6a6.12,6.12,0,0,1-6.1-6.1,6.1,6.1,0,1,1,12.2,0A6.12,6.12,0,0,1,28.7,35.6Zm0-10.1a4.1,4.1,0,1,0,4.1,4.1A4.18,4.18,0,0,0,28.7,25.5Z" transform="translate(0)"  /><path d="M30.4,1.7a1.27,1.27,0,0,1-.1.6,1.76,1.76,0,0,1-1.6,1.1,1.71,1.71,0,0,1-1.6-1.1A1.27,1.27,0,0,1,27,1.7a0.9,0.9,0,0,1,.1-0.5,1.67,1.67,0,0,1,3.2,0A4.33,4.33,0,0,1,30.4,1.7Z" transform="translate(0)"  /><path d="M30.4,57.3a0.9,0.9,0,0,1-.1.5,1.67,1.67,0,0,1-3.2,0,0.75,0.75,0,0,1-.1-0.5,1.27,1.27,0,0,1,.1-0.6,1.76,1.76,0,0,1,1.6-1.1,1.71,1.71,0,0,1,1.6,1.1C30.3,56.9,30.4,57.1,30.4,57.3Z" transform="translate(0)"  /><path d="M46.4,29.5a1.62,1.62,0,0,1-1.2,1.6c-0.1,0-.3.1-0.4,0.1s-0.5-.1-0.7-0.1a1.64,1.64,0,0,1-1-1.5,1.54,1.54,0,0,1,1-1.5,1.48,1.48,0,0,1,.7-0.1,0.48,0.48,0,0,1,.4.1A1.34,1.34,0,0,1,46.4,29.5Z" transform="translate(0)"  /><path d="M14.3,29.5a1.54,1.54,0,0,1-1,1.5,1.48,1.48,0,0,1-.7.1,0.48,0.48,0,0,1-.4-0.1,1.67,1.67,0,0,1,0-3.2c0.1,0,.3-0.1.4-0.1s0.5,0.1.7,0.1A2.06,2.06,0,0,1,14.3,29.5Z" transform="translate(0)"  /><path d="M28.7,12.6A16.84,16.84,0,0,0,12.4,25.3h0.3a6.75,6.75,0,0,1,1.4.2,15.12,15.12,0,0,1,29.2,0,5.9,5.9,0,0,1,1.4-.2H45A16.93,16.93,0,0,0,28.7,12.6Zm16,21.1a5.9,5.9,0,0,1-1.4-.2A15.33,15.33,0,0,1,28.7,44.7,15.45,15.45,0,0,1,14,33.5a5.9,5.9,0,0,1-1.4.2H12.3a16.87,16.87,0,0,0,32.7,0H44.7Z" transform="translate(0)"  /><path d="M32.8,1.1V1.6a3.6,3.6,0,0,1-.2,1.1,27,27,0,0,1,0,53.4,5.16,5.16,0,0,1,.2,1.1v0.5A28.59,28.59,0,0,0,32.8,1.1ZM1.7,29.5A27.11,27.11,0,0,1,24.6,2.8a5.16,5.16,0,0,1-.2-1.1V1.2a28.66,28.66,0,0,0,.1,56.7V57.4a3.6,3.6,0,0,1,.2-1.1A27.29,27.29,0,0,1,1.7,29.5Z" transform="translate(0)"  /></svg>
